X: 3092
T: LOWE'S REEL
C: John Cumming
Q:"Reel."
R: Reel.
%R:reel
B: James Kerr "Merry Melodies" v.3 p.12 #92
Z: 2016 John Chambers <jc:trillian.mit.edu>
M: C
L: 1/8
K: A
|:\
vA/A/A A2 Acec | dcBc defg |\
a>A A/A/A a2ec | dBcA GBBc ::\
A/A/A a2 efce |
cAce aece |\
[1 A/A/A a2 efce | dBcA GBBc :|\
[2 eaga efce | dBcA GBBc |]

%%sep 1 1 500
%%sep 1 1 500

